X:1
T:Grande Paraphrase de la Marche de Donizetti
T:Grande Paraphrase de la Marche de Donizetti
T:composée pour Sa Majesté le Sultan Abdul-Medjid Khan, S. 403
T:Franz Liszt
%%score { ( 1 3 ) | ( 2 4 5 6 ) }
L:1/8
Q:1/4=58
M:4/4
K:Bb
V:1 treble nm="鋼琴" snm="Pno."
V:3 treble 
V:2 bass 
V:4 bass 
V:5 bass 
V:6 bass 
V:1
"_marcato pesante""^Andante maestoso" z2 |"^con due mani (ad libitum)" z8 | z8 | z8 | %4
[K:bass] z8[Q:1/4=32][Q:1/4=40][Q:1/4=48][Q:1/4=58] |[K:treble] z8 | %6
 z8[Q:1/4=32][Q:1/4=40][Q:1/4=48][Q:1/4=58][Q:1/4=32] |[Q:1/4=58] z8[Q:1/4=64][Q:1/4=72] | %8
[Q:1/4=58] z8[Q:1/4=72] | %9
"^Più mosso""_" z4[Q:1/4=46] z2[K:bass][Q:1/4=100]"_agitato" !^!G,x/!^!B,/ | %10
 !^!D2 !^!D>!^!D !^!E2 !^!G>!^!E | %11
 [G,B,]/[G,B,]/ z/ [G,B,]/ [G,B,]/[G,B,]/z/[G,B,]/ [G,B,]/[G,B,]/z/[G,B,]/!f!!<(! [G,B,]/[G,B,]/ z/ [G,B,]/!<)! | %12
!ff! (!>![G,G]2 !^![^F,^F])x/!^![E,E]/ (!>![E,E]2 !^![D,D])x/!^![D,C]/ | %13
 !^!B,x/!f!!<(!!^!=B,/ !^!C/!^!^C/x/!<)!!ff!!^!D/ !^!G, x !^!G,x/!^!_B,/ | %14
!ff! !^!D2 !^!D>!^!D[K:treble]!ff! !^![G,G]2 !^![G,G]x/!^![G,G]/ | %15
!f!"_cresc." !^!F2 !^!^F/!^!G/!^!^G/!^!A/ !^!B2 !^!B>!^!c |!ff! !>!d>B F>D F>E C>F | %17
[I:staff +1] [F,B,] (3(D,/"^"F,/B,/[I:staff -1](6:4:6D/F/"^"B/d/f/d'/) !wedge!b[Q:1/4=32] z[Q:1/4=100]!mf! (6:4:6B,/[Q:1/4=110]B,/"_"B,/[Q:1/4=120]A,/B,/A/ | %18
!<(! (6:4:6B/B/B/A/B/a/!8va(! (6:4:6b/b/b/a/b/a'/ !wedge![bb']!8va)! z (6:4:6B,/B,/B,/A,/B,/A/ | %19
 (6:4:6B/B/B/A/B/a/!8va(! (6:4:6b/b/b/a/b/a'/!<)!!ff! !wedge![bb']!8va)! z !wedge![=B,FG=B]z/!wedge![B,FGB]/ | %20
"^tremolando" !//-![CFG]3/2 c/ (6:4:6[C=EG]/c/[CEG]/c/[CDG]/c/ !arpeggio![CEGc][Q:1/4=56] z[Q:1/4=120]!mf! (6:4:6C/C/C/=B,/C/=B/ | %21
 (6:4:6c/c/c/=B/c/=b/!8va(! (6:4:6c'/c'/c'/b/c'/=b'/ !wedge![c'c'']!8va)! z!<(! (6:4:6C/C/C/=B,/C/B/!<)! | %22
 (6:4:6c/c/c/=B/c/=b/!8va(! (6:4:6c'/c'/c'/b/c'/=b'/ !wedge![c'c'']!8va)! z !wedge![^CG=A^c]z/!wedge![CG=Ac]/ | %23
"^tremolando" !//-![DGA]3/2 d/ (6:4:6[D^FA]/d/[DFA]/d/[D=EA]/d/ !arpeggio![DFAd][Q:1/4=56] z!mf![Q:1/4=120]"_sempre più cresc. e" (6:4:6D/^C/D/^c/d/c/ | %24
 (6:4:6d/^c'/d'/c'/!8va(!d'/^c''/(6:4:6d''/c''/d'/c'/d'/c'/!8va)!(6:4:6d/^c/d/c/D/^C/(6:4:6D/c/d/c/d/c'/ | %25
!8va(! (6:4:6d'/^c'/d'/^c''/d''/c''/(6:4:6d'/c'/d'/c''/d''/c''/(6:4:6d'/c'/d'/c''/d''/c''/(6:4:6d'/c'/d'/c''/d''/c''/ | %26
!ff![Q:1/4=100] (6:4:6!arpeggio![d'g'd'']/^c''/b'/g'/d'/b/!8va)! (6:4:6!arpeggio![gd']/^c'/b/g/d/B/ (6:4:6!arpeggio![Gd]/c/B/G/D/B,/ (6:4:6!arpeggio![G,D]/C/B,/B,/A,/G,/ | %27
[Q:1/4=80] z[Q:1/4=92] (3D/D/D/[I:staff +1]!>!D[I:staff -1] (3D/D/D/[I:staff +1]!>!D[I:staff -1] (3D/D/D/ (3z"^"[Q:1/4=82] [DG][DB] | %28
!f! [DGBd]2 [DGBd]z/[DGBd]/ [EGce]2 [Gceg]z/[EGce]/ | [DGBd]2 z2 z2!<(! [DGBd]z/[GBdg]/!<)! | %30
!ff! (!>![Gceg]2 [^Fce^f])z/[Ee]/ (!>![EFAe]2!>(! [DFAd])z/[Cc]/!>)! | %31
!f! [B,DGB]>[DG=B] [DGc]/[DG^c]/z/[G_Bd]/ [B,DG] z!<(! [G,B,DG]>[B,DGB]!<)! | %32
!ff!"_crescendo" [DGBd]2 [DGBd]z/[DGBd]/ [Gceg]2 [Gceg]z/[Gceg]/ | %33
 [FBdf]2 [_G_g]/[=G=g]/[_A_a]/[=A=a]/ [B_d=eb] z [Bdeb]>[cc'] | %34
 [_df_d']>[_Ad_a] [Adf]>[Ad] [F=Af]>[FAe] [FAc]>[FAf] | %35
 [FB][I:staff +1] [D,F,B,][Q:1/4=72][I:staff -1][DFB][Q:1/4=68][dfb][Q:1/4=60]!8va(! [d'f'b']!8va)![Q:1/4=54] z!f![Q:1/4=88] [Gg]z/[Bb]/ | %36
 !>![dd']2 !>![dd']z/[dd']/ !>![ee']2 !>![gg']z/[ee']/ | %37
 [dd']2 x2 x!<(! ([^c^c'][dd'])z/[gg']/!<)! | %38
!ff! (!>![gg']2 [^f^f'])z/[ee']/ ([ee']2 [dd'])z/[cc']/ | %39
 [Bb]2 [=B=b]/[cc']/[^c^c']/[dd']/ [Gg] x [Gg]>[_B_b] | %40
"_cresc. assai" [dd']2 [dd']z/[dd']/ [gg']2 [gg']z/[gg']/ | %41
!fff! [ff']2!8va(! [^f^f']/[gg']/[^g^g']/[aa']/ [bb']2!8va)!!8va(! [bb']/[=b=b']/[c'c'']/[_d'_d'']/ | %42
 [=d'd'']!8va)!z/[bb']/ [ff']z/[dd']/ [ff']z/[ee']/ [cc']z/[ff']/ | %43
 !wedge![Bb] [DFB]/[DFB]/ !wedge![DFB] [dfb]/[dfb]/ !wedge![dfb][Q:1/4=32] z!mf![Q:1/4=100] (6:4:6B,/B,/[Q:1/4=110]B,/A,/[Q:1/4=120]B,/A/ | %44
!<(! (6:4:6B/B/B/A/B/a/!8va(! (6:4:6b/b/b/a/b/a'/ !wedge![bb']!8va)! z!<)! (6:4:6B,/B,/B,/A,/B,/A/ | %45
"_simile" (6:4:6B/B/B/A/B/a/!8va(! (6:4:6b/b/b/a/b/a'/!ff! !wedge![bb']!8va)! z !wedge![=B,FG=B]z/!wedge![B,FGB]/ | %46
"^tremolando" !//-![CFG]3/2 c/ (6:4:6[C=EG]/c/[CEG]/c/[CDG]/c/ !arpeggio![CEGc][Q:1/4=56] z!mf![Q:1/4=120] (6:4:6C/C/C/=B,/C/=B/ | %47
 (6:4:6c/c/c/=B/c/=b/!8va(! (6:4:6c'/c'/c'/b/c'/=b'/ !wedge![c'c'']!8va)! z!<(! (6:4:6C/C/C/=B,/C/B/!<)! | %48
 (6:4:6c/c/c/=B/c/=b/!8va(! (6:4:6c'/c'/c'/b/c'/=b'/ !wedge![c'c'']!8va)! z !wedge![^CG=A^c]z/!wedge![CG=Ac]/ | %49
 !//-![DGA]3/2 d/ (6:4:6[D^FA]/d/[DFA]/d/[D=EA]/d/ !arpeggio![DFAd][Q:1/4=56] z!mf![Q:1/4=120]"_sempre più cresc. e" (6:4:6D/^C/D/^c/d/c/ | %50
[Q:1/4=100] (6:4:6d/^c'/d'/c'/!8va(!d'/^c''/(6:4:6d''/c''/d'/c'/d'/c'/!8va)!(6:4:6d/^c/d/c/D/^C/(6:4:6D/c/d/c/d/c'/ | %51
!ff!!8va(! (6:4:6d'/^c'/d'/^c''/d''/c''/(6:4:6d'/c'/d'/c''/d''/c''/(6:4:6d'/c'/d'/c''/d''/c''/(6:4:6d'/c'/d'/c''/d''/c''/ | %52
[Q:1/4=80] [d'g'd'']/4[b'^c'']/4[a'=c'']/4[^g'=b']/4[=g'_b']/4[^f'a']/4[=f'_a']/4[=e'g']/4[_e'^f']/4[d'=f']/4[^c'=e']/4[=c'_e']/4!8va)![=bd']/4[_b^c']/4[a=c']/4[^g=b]/4[=g_b]/4[^fa]/4[=f_a]/4[=eg]/4[_e^f]/4[d=f]/4[^c=e]/4[=c_e]/4[=Bd]/4[_B^c]/4[A=c]/4[^G=B]/4(5:4:5[=G_B]/4[^FA]/4"_"[=F_A]/4[=EG]/4_E/4 | %53
!f! (34:32:34z/4 ^C/4D/4E/4!<(!=E/4F/4^F/4G/4^G/4A/4B/4=B/4=c/4^c/4d/4_e/4=e/4f/4^f/4g/4_a/4=a/4_b/4=b/4=c'/4^c'/4d'/4_e'/4=e'/4f'/4^f'/4g'/4^g'/4a'/4!<)![Q:1/4=72][Q:1/4=64] | %54
!ff![Q:1/4=88] !>![bd'b']2 x [ad'a']/[gd'g']/ [^fd'^f']2 x [gd'g']/[ad'a']/ | %55
 [gd'g']2 x2 x2 !>![g-d'f'g'-]2 | %56
 [gc'e'g'] z/ !wedge![gg']/!wedge![ff']z/!wedge![ee']/ !wedge![dd']z/!wedge![cc']/ !>![Ac^fa]>[dd'] | %57
"_dim." !wedge![GBg] z !>!G4 ([EG]>[D^F]) | %58
 !wedge![_B,DG] z[I:staff +1] ([D,=B,]>[C,C]) [E,G,C][I:staff -1] z!>(! (E>D)!>)! | %59
!mf![Q:1/4=60] D z z[Q:1/4=50][I:staff +1] (3G,,/"_"G,,/G,,/ !wedge!G,,[I:staff -1] z z[Q:1/4=40][I:staff +1] (3G,,/"_"G,,/G,,/ | %60
 !wedge!G,,[I:staff -1] z z2[Q:1/4=68] z4 || %61
[K:Eb][M:2/2]"^Trio"[Q:1/4=144]"^Tempo di marcia animato"!p! z2 [EG][EG] [EG] z z2 | %62
 z2 [EG][EG] [EG] z z2 | z4 z2"^quasi tromba"!f! !wedge!E!wedge!G | %64
 !wedge!B2 !wedge!B!wedge!B !wedge!B2 !wedge!c!wedge!B | %65
 !wedge!e2 !wedge!G!wedge!B !wedge!E2 !wedge!c!wedge!B | %66
 !wedge!A2 !wedge!D!wedge!F !wedge!B,2 !wedge!B!wedge!A | %67
 !wedge!G2 !wedge!B,!wedge!E !wedge!G!wedge!B,!wedge!E!wedge!G | %68
 !wedge!B2 !wedge!B!wedge!B !wedge!B2 !wedge!c!wedge!B | !>!e2 !wedge!_G!wedge!_c E2 [e_g]_c' | %70
 !wedge!b!wedge![df] !wedge![Bd]!wedge!=g !wedge!f!wedge![=A=c] !wedge![FA]!wedge!d | %71
 !wedge![FB] z!8va(! !wedge![bb']!wedge![bb'] !wedge![bb']!8va)! z"^sempre stacc." !wedge![Ee]!wedge![Gg] | %72
 !wedge![Bb] z !wedge![Begb]!wedge![Begb] !wedge![Begb]2 !wedge![cc']!wedge![Bb] | %73
 !wedge![ee'] z !wedge![Geg]!wedge![Beb] !wedge![Be] z !wedge![cc']!wedge![Bb] | %74
 !wedge![Aa] z !wedge![FAd]!wedge![FAf] !wedge![FB] z !wedge![Bb]!wedge![Aa] | %75
 !wedge![Gg] z !wedge![GB]!wedge![GBe] !wedge!g!wedge!B!wedge!e!wedge!g | %76
 !wedge![Bb] z !wedge![Begb]!wedge![Begb] !wedge![Begb]2 !wedge![cc']!wedge![Bb] | %77
 !>![ee'] z !wedge![_ce_g]!wedge![ce_c'] [ce] z!8va(! !arpeggio![_c'e'_g']_c'' | %78
 !wedge![d'f'b']!wedge!b !arpeggio!!wedge![fbd']!wedge!=g' !arpeggio!!wedge![=a=c'f']!wedge!e!8va)! !arpeggio!!wedge![cfa]!wedge!d' | %79
 !wedge![Bfb] z!8va(! !wedge![bb']!wedge![bb'] !wedge![bb']!8va)! z!f!"^vibrato assai" (3G"^"GG | %80
 G2 [E=A][E^F] [DG]2 [E=A][EF] | [DG]2 [E=A]2 !>![FB]2 (3B"^"BB | B2 [_Gc][G=A] [FB]2 [Gc][GA] | %83
 !wedge![FB]2 !wedge![_Gc]2 !>![_A_d]2 (3ddd | %84
[Q:1/4=102] !>!!wedge!_d2[Q:1/4=144] (3ddd[Q:1/4=102] !>!!wedge!d2[Q:1/4=144] (3ddd | %85
[Q:1/4=102] !^!_d6[Q:1/4=158]!8va(! !wedge![_g_g']!wedge![bb'] | %86
 !wedge![_d'_g'b'_d''] z !wedge![d'g'b'd'']!wedge![d'g'b'd''] !wedge![d'g'b'd''] z !wedge![e'g'b'e'']!wedge![d'd''] | %87
 !wedge![_g'b'_g''] z !wedge![g'b']!wedge![_d'_d''] !wedge![_gbg'] z !wedge![e'g'b'e'']!wedge![d'd''] | %88
 !wedge![_c'f'_c''] z !wedge![ff']!wedge![aa'] !wedge![_d_d'] z !wedge![d'f'_d'']!wedge![c'c''] | %89
 !wedge![b_g'b'] z !wedge![_gb_d']!wedge![bd'g'] !wedge![d'g'b']!wedge![gbd']!wedge![bd'g']!wedge![d'g'b'] | %90
 !wedge![_d'_g'b'_d''] z !wedge![d'g'b'd'']!wedge![d'g'b'd''] !wedge![d'g'b'd''] z !wedge![e'g'b'e'']!wedge![d'd''] | %91
 !>!!wedge![^f'=a'^f''] z !wedge![=d'f'a']!wedge![d'f'd''] !wedge![=ad'f'] z !wedge![f'f'']!wedge![f'f''] | %92
 !wedge![_g'b'_g''] z !wedge![e'g'b']!wedge![g'b'e''] !wedge![g'_c''g''] z !wedge![g'=c''f'']!wedge![g'c''e''] | %93
 [d'f'b']!8va)! z (3B"^"BB B z!f! [Ee][Gg] | %94
"_energico" !wedge![Bb] z [Begb][Begb] !wedge![Begb] z [cc'][Bb] | %95
 !wedge![ee'] z [Gg][Bb] !wedge![Ee] z [cc'][Bb] | !wedge![Aa] z [Dd][Ff] [B,B] z [Bb][Aa] | %97
 [Gg] z [B,B]!<(![Ee] [Gg][B,B][Ee][Gg]!<)! |!ff! [Bb] z [Begb][Begb] [Begb] z [cc'][Bb] | %99
 [ee'] z [Gg][Bb] [Ee] z!8va(! [_c'e'_g']_c'' | %100
 !arpeggio!!wedge![d'f'b']!wedge!b !wedge![fbd']!wedge!=g'!8va)! !wedge![=a=c'f']!wedge!e !wedge![cfa]!wedge!d' | %101
 !wedge![Bfb] z [B,B][B,B] [B,B] z"_ben marcato il tema" !wedge!e!wedge!g | %102
!8va(! !wedge!b [e'g'b'] !wedge!b!wedge!b !wedge!b [e'g'b'] !wedge!c'!wedge!b | %103
 !wedge!e' [g'b'e''] !wedge!g!wedge!b !wedge!e z !wedge!c'!wedge!b | %104
 !wedge!a [_c'a'] !wedge!d!wedge!f !wedge!B z ba | g [be'g']!8va)! Be gBeg | %106
!8va(! b [e'g'b'] b"_cresc."b b [e'g'b'] c'b | e' [g'b'e''] gb ^d z [^f=a^d'][fad'] | %108
 =e' [^g'=b'=e''] ^g=b =e z [=g_d'e'][gd'e'] | f' [=a'c''f''] f[=ac'] ^f' [c''_e''^f''] ^f[c'e'] | %110
 g' [c''e''g''] g[c'e'] =a' [c''e''=a''] =a[c'e'] | %111
!>(! b[d'b'] =a[d'=a'] g[d'g']!8va)! ^c[g^c']!>)! || %112
[K:Bb][M:4/4][K:bass][Q:1/4=120]"^Meno allegro, tempo della marcia"!mf! D2 !wedge!Dz/[^F,A,D]/ (E2 !wedge!G)z/[G,B,E]/ | %113
 =E2 !wedge!Ez/[^G,=B,E]/ (F2 !wedge!A)z/[A,CF]/ |[K:treble] (!>!^F2 G)z/[=B,DG]/ | %115
 (!>!_A2 !wedge!=A)z/[^C=EA]/ | z/ [FB][=EA][_E_A][DG][^C^F][=C=F][=B,=E][_B,_E]/ | %117
"_cresc." [Dd]2 !wedge![^FAd]z/[Dd]/ (!>![Ee]2 !wedge![GBg])z/[Ee]/ | %118
!f! [=E=e]2 [^G=Be]z/[Ee]/ (!>![Ff]2 !wedge![Aca])z/[Ff]/ | %119
 (!^![^F^f]2 !wedge![=Bdg])z/[Gg]/ (!^![_A_a]2 !wedge![^c=e=a])z/[=Aa]/ | %120
 !>!!wedge![Bdfb][I:staff +1] [^C=EA]/[I:staff -1][^c=ea]/[I:staff +1][=C_E_A]/[I:staff -1][=c_e_a]/[I:staff +1][=B,DG]/[I:staff -1][=Bdg]/[I:staff +1][^A,^C^F]/[I:staff -1][^A^c^f]/[I:staff +1][=A,=C=F]/[I:staff -1][=A=c=f]/[I:staff +1][^G,=B,=E]/[I:staff -1][^G=B=e]/[I:staff +1][=G,_B,_E]/[I:staff -1][=G_B_e]/ | %121
 [^FAd]!f! z/!<(! A,/[DFA]/A/[d^fa]/a/!<)! (6:4:6[c'g'a']c'"_"[cbc']A[CGA]A, | %122
!f!!<(! [D^FA] z!8va(! [d'd'']>!<)!!ff![d'd'']!f!!<(! [e'e'']2 [g'g'']>!<)!!ff![e'e''] | %123
 [d'd'']!8va)! z/ A,/[D^FA]/A/[d^fa]/a/ (6:4:6[c'g'a']c'[cbc']A[CGA]A, | %124
!f!!<(! [D^FA] z!8va(! [d'd'']>!<)!!ff![d'd'']!f!!<(! [e'e'']2 [g'g'']>!<)!!ff![e'e''] | %125
!f!!<(! [d'd''] z [dd']>!<)!!ff![dd']!f!!<(! !>![ee']2 [gg']>!<)!!ff![ee'] | %126
 [dd']!8va)! z D>D !^!E2- (3E"^"!wedge!G!wedge!E | %127
 (3!wedge!D!wedge!^F!wedge!D (3!wedge!_D!wedge!=F!wedge!D (3!wedge!C!wedge!=E!wedge!C (3!wedge!_C!wedge!_E!wedge!C | %128
[I:staff +1] (3!wedge![F,B,]!wedge![F,D]!wedge![F,B,] (3!wedge![=E,=A,]!wedge![E,^C]!wedge![E,A,] (3!wedge![_E,_A,]!wedge![E,=C]!wedge![E,A,] (3!wedge![E,A,]!wedge![E,E]!wedge![E,A,] | %129
!>(! (3[D,G,][D,G,D][D,G,] (3[D,G,][D,G,D][D,G,] (3[D,G,][D,G,D][D,G,] (3[D,^F,][D,F,D][D,F,]!>)! || %130
!p![Q:1/4=88]"^Animato assai"[I:staff -1] z4 z2[I:staff +1] [B,,D,G,]>[D,G,B,] | %131
[I:staff -1] D2 !wedge!D z/ D/ (!>!E2 !wedge!G)z/E/ | %132
 D2!<(![I:staff +1] (3^C,/"_"C,/C,/[I:staff -1] x[I:staff +1] (3E,/E,/E,/!<)![I:staff -1] x D>G | %133
 (!>![EG]2 !wedge!^F) z/ E/ (!>!E2 !wedge!D)z/C/ | %134
[K:bass] B,z/=B,/ (3C"^"^CD [B,,D,G,]2 !wedge![B,,D,G,]z/!wedge![D,G,=B,]/ | %135
[K:treble]!mf! !>!D2 !wedge!Dz/D/ !>![EG]2 [EG]z/G/ | %136
 [DF]2!p!!<(![I:staff +1] (3_G,/G,/G,/[I:staff -1] x[I:staff +1] (3_A,/A,/A,/!<)![I:staff -1] x !>!Bz/[Cc]/ | %137
 =dz/B/ Fz/D/ Fz/E/ Cz/F/ | %138
[I:staff +1] [F,B,][I:staff -1] x[I:staff +1] (3B,,/B,,/B,,/[I:staff -1] x!mf! !wedge!B z[Q:1/4=116]!<(! !wedge!!^![Gg]z/!wedge!!^![Bb]/!<)! | %139
!ff!!8va(! !^!d'2 !wedge!!^!d'z/!^![dd']/ (!>![ee']2 !wedge!!^![gg'])z/!^![ee']/ | %140
!<(! !^!d'4!<)!!fff! x z !wedge!!^![dd']z/!wedge!!^![gg']/ | %141
!>(! (!^!g'2!>)!!ff! !wedge!!^![^f^f'])z/!^![ee']/ (!>!e'2 !wedge!!^!d')!8va)!z/!^![cc']/ | %142
!<(! (6:4:6[Bb][=B=b]"^"[cc'][^c^c']!<)!!fff![dd'][_B_b] !wedge![Gg] z !wedge![Gg]z/!wedge![Bb]/ | %143
!8va(! !>!d'2 !wedge!!^!d'z/!^![dd']/ !>!g'2 !wedge!!^!g'z/!^![gg']/ | %144
"_cresc." (3:2:2[fbd'f']2 [^f^f'] (3[gg'][_a_a'][=a=a'] [b_d'=e'b']2 (3[=b=b'][c'c''][d'_d''] | %145
 [=d'f'=d'']z/[bb']/ [fbf']z/[dd']/ [faf']z/[ee']/!8va)! [cc']z/[ff']/ | %146
 [Bfb] z!8va(! (3[bb'][bb'][bb'] [bb']!8va)![Q:1/4=80]z[K:bass][Q:1/4=144]"^Più animato""_tempestoso"!f![I:staff +1]x/[I:staff -1][K:bass][B,,B,]/"_"[I:staff +1]x/[I:staff -1][B,,D,B,]/ | %147
"_"[I:staff +1]x/[I:staff -1][B,,E,B,]/[I:staff +1]x/!<(![I:staff -1][B,,E,B,]/[I:staff +1]x/[I:staff -1][B,,=E,B,]/[I:staff +1]x/[I:staff -1][B,,F,B,]/[I:staff +1]x/[I:staff -1][B,,_G,B,]/[I:staff +1]x/[I:staff -1][B,,=G,B,]/[I:staff +1]x/[I:staff -1][B,,_A,B,]/[I:staff +1]x/[I:staff -1][B,,=A,B,]/!<)! | %148
[I:staff +1]x/[I:staff -1][B,,B,]/[I:staff +1]x/[I:staff -1][B,,A,B,]/[I:staff +1]x/[I:staff -1][B,,_A,B,]/[I:staff +1]x/[I:staff -1][B,,_G,B,]/[I:staff +1]x/[I:staff -1][B,,_G,B,]/[I:staff +1]x/[Q:1/4=80][I:staff -1][B,,F,B,]/[K:treble][Q:1/4=100] [=Bfg=b]z/[Bfgb]/ | %149
 (3!wedge![cfgc']"_" [FGc][FGc] (3[=EGc]"^"[EGc][DGc] [EGc]z[K:bass]!f![Q:1/4=144][I:staff +1]x/[I:staff -1][K:bass][C,C]/"_"[I:staff +1]x/!<(![I:staff -1][C,=E,C]/ | %150
[I:staff +1]x/[I:staff -1][C,F,C]/[I:staff +1]x/[I:staff -1][C,F,C]/[I:staff +1]x/[I:staff -1][C,^F,C]/[I:staff +1]x/[I:staff -1][C,G,C]/[I:staff +1]x/!<)![I:staff -1][C,_A,C]/[I:staff +1]x/[I:staff -1][C,=A,C]/[I:staff +1]x/[I:staff -1][C,B,C]/[I:staff +1]x/[I:staff -1][C,=B,C]/ | %151
"_"[I:staff +1]x/[I:staff -1][C,C]/[I:staff +1]x/[I:staff -1][C,=B,C]/[I:staff +1]x/[I:staff -1][C,_B,C]/[I:staff +1]x/[I:staff -1][C,=A,C]/[I:staff +1]x/[I:staff -1][C,_A,C]/[I:staff +1]x/[Q:1/4=80][I:staff -1][C,G,C]/[K:treble][Q:1/4=100] [^cg=a^c']z/[cgac']/ | %152
 (3!wedge![dgad'] [GAd][GAd] (3[^FAd][FAd][=EAd] [FAd]z!f![Q:1/4=144]"_"[I:staff +1][xD,]/[I:staff -1][K:bass][D,D]/[I:staff +1]x/[I:staff -1][D,^F,D]/ | %153
!<(![I:staff +1]x/[I:staff -1][D,G,D]/[I:staff +1]x/[I:staff -1][D,G,D]/[I:staff +1]x/[I:staff -1][D,^G,D]/[I:staff +1]x/[I:staff -1][D,A,D]/[I:staff +1]x/[I:staff -1][D,B,D]/[I:staff +1]x/[I:staff -1][D,=B,D]/[I:staff +1]x/!<)![I:staff -1][D,CD]/[I:staff +1]x/[I:staff -1][D,^CD]/ | %154
"_"[I:staff +1]x/!ff![I:staff -1][D,D]/[I:staff +1]x/[I:staff -1][D,^CD]/[I:staff +1]x/[I:staff -1][D,=CD]/[I:staff +1]x/[I:staff -1][D,=B,D]/[I:staff +1]x/[I:staff -1][D,_B,D]/[I:staff +1]x/!>(![I:staff -1][D,A,D]/[I:staff +1]x/[I:staff -1][D,_A,D]/[I:staff +1]x/[I:staff -1][D,^G,D]/!>)! | %155
[K:treble]!mf! (3!>![G,DG]"^"[G,DG][G,DG] (3!>![G,CG][G,CG][G,CG] (3!>![G,B,G][G,B,G][G,B,G] (3!>![G,CG][G,CG][G,CG] | %156
"^stringendo" (12:8:12[D^Fd][Ee][=E=e][=Ff]!<(![^F^f][Gg][^G^g][Aa][Bb][=B=b][cc'][^c^c'] | %157
!8va(! (12:8:12[dd'][ee'][=e=e'][=ff'][^f^f'][gg'][^g^g'][aa'][bb'][=b=b'][c'c''][^c'^c'']!<)! | %158
!fff!"_" (3!>![d'd''][d'd''][d'd''] (3!>![d'd''][d'd''][d'd''] (3!>![d'd''][d'd''][d'd''] (3!>![d'd''][d'd''][d'd''] | %159
{/d'} Td''8 |"^"[Q:1/4=72]!>(! !fermata!Td''8!>)![Q:1/4=144] ||[K:G][Q:1/4=172] Td''8 | Td''8 | %163
 Td''8 | Td''8 | Td''8{^c''d''} |"^" !fermata!T_e''8{!fermata!d''!fermata!e''} | %167
[Q:1/4=138] (14:8:14(^f''/g''/f''/=e''/d''/^c''/"_"=b'/a'/g'/f'/e'/d'/^c'/b/)!8va)! (13:8:13(a/b/a/g/f/e/"_"d/^c/B/A/G/F/E/) | %168
[Q:1/4=90]!<(! (D/4F/4A/4^c/4d/4f/4a/4^c'/4!8va(!d'/4f'/4a'/4^c''/4 !wedge!d'')!8va)! !fermata!z2!<)![Q:1/4=172] [Gg][Bb] | %169
 [dgbd'] z [dgbd'][dgbd'] [dgbd'] z [egbe'][dd'] | [gbg'] z [Bb][dd'] [GBg] z [ee'][dd'] | %171
 [cfc'] z [Ff][Aa] [Dd] z [dfd'][cc'] | [Bgb] z [GBd][Bdg] [dgb][GBd][Bdg][dgb] | %173
 [dgbd'] z [dgbd'][dgbd'] [dgbd'] z [egbe'][dd'] | %174
 [g_bg'] z [_Bb][_d_d'] [Gg]"_sempre" z [gbg'][gbg'] | %175
"_più incalzando" [_ac'_a'] z [cc'][_e_e'] [^G^g] z!8va(! [=a^bf'=a'][abf'a'] | %176
 [^a^c'f'^a']2 [ac'f'a'][ac'f'a'] [ae'g'a']2 [ae'g'a'][ae'g'a'] | %177
 [be'^g'b']2 [be'b'][bg'b'] [bb']2 [b^d'b'][bd'f'b'] | %178
 [be'^g'b']2 [be'b'][bg'b'] [bb']2 [b^d'b'][bd'b'] | %179
!<(! [be'^g'b']2 [be'g'b']2 [c'e'=g'c'']2 [^c'e'_b'^c'']2!<)! | %180
!fff! [d'g'=b'd'']2 [d'g'b'd''][d'g'b'd''] [d'g'b'd'']2 [e'e''][d'd''] | %181
 [g'g'']2 [bb'][d'd''] [gg']2 [e'g'e''][d'd''] | [c'f'c'']2 [ff'][aa'] [dd']2 [d'f'd''][c'c''] | %183
 [bg'b']2 [dd'][gg'] [bb'][dd'][gg'][bb'] | %184
 [d'g'b'd'']2 [d'g'b'd''][d'g'b'd''] [d'g'b'd'']2 [e'e''][d'd''] | %185
 [g'b'g'']2 [bb'][d'd''] [gg']2 [g'b'd'']g'' | [_b'_e'']g'[_b_e']g' [b=e']g!8va)![^Ae]g | %187
 [Be]^G[Be]^g [Be]G[B,E]G | [C=F]A,[CF]A [C^F]A,[CF]d | %189
 [G,B,G]2 z2!ff!"^tremolando" (6:4:6[GBd]g"_"[GBd]g[GBd]g | !/-![G_B_e]2 g2"_" !/-![Beg]2 _b2 | %191
!8va(! !/-![d=f_b]4 d'4 | !/-![dfc']2 d'2 !/-![fad']2 f'2 | !/-![gbd']4 g'4 | %194
 !/-![g_b_e']2 g'2 !/-![be'g']2 _b'2 | !/-![d'=f'_b']4 d''4 | %196
 !/-![d'f'c'']2 d''2 !/-![f'a'd'']2 f''2!8va)! | %197
[Q:1/4=192]!ff! [g=bd'g']2 [B,DG][DGB] [GBd]2!8va(! [ee'][dd'] | %198
 [gg']2!8va)! [DGB][GBd] [Bdg]2!8va(! [aa'][gg'] | %199
 [bb']2!8va)! [GBd][Bdg] [dgb]2!8va(! [c'c''][bb'] | %200
 [d'd'']2!8va)! [Bdg][dgb] [gbd']2!8va(! [e'e''][d'd''] | %201
 [g'b'g'']2 [e'e''][d'd''] [g'b'g'']2 [e'e''][d'd''] | %202
 [g'b'g'']2 [e'e''][d'd''] [g'b'g'']2 [e'e''][d'd''] | %203
"_" !/-![g'b']2 g''2"_" !/-!!>![g'c'']2 g''2 |"_" !/-![g'b']2 g''2"_" !/-!!>![g'c'']2 g''2 | %205
[Q:1/4=102]"_a piacere" (6:2:6[g'b']g''[g'c'']g''[g'^c'']g''(6:2:6[g'd'']g''[g'_e'']g''[g'=e'']g''(6:2:6[g'=f'']g''[g'e'']g''[g'_e'']g''(6:2:6[g'd'']g''[g'^c'']g''[g'=c'']g'' | %206
[Q:1/4=448] !^![g'b'g'']2 z2 z4 | !^![d'f'a'd'']2 z2 z4 | %208
[Q:1/4=224] !^![gbd'g']2!8va)! z2 !^![dfad']2 z2 | !^![GBdg]2 z2 !^![DFAd]2 z2 | %210
 !^![B,DG]2 z2[Q:1/4=200] z4 |{/[Bdgb]} !^![Bdgb]2 z2[Q:1/4=80] z4 | %212
{/!fermata!G} !^!!fermata!G8[Q:1/4=40] |] %213
V:2
!f! !wedge!G,,,z/!wedge!B,,,/ | %1
 (22:16:7!>!D,,2-!<(!!ped! (D,,/8B,,/8[I:staff -1]G,/8!<)!!ff!D/8!f!G,/8[I:staff +1]B,,/8)!ped-up! !wedge!D,,z/!wedge!D,,/ (22:16:7!>!E,,2-!<(!!ped! (E,,/8C,/8[I:staff -1]G,/8!<)!!ff!E/8!f!G,/8[I:staff +1]C,/8)!ped-up! !wedge!G,,z/!wedge!E,,/ | %2
 (41:32:10D,,4-!<(!!ped! D,,/8B,,/8[I:staff -1]G,/8D/8!<)!!ff!G,/8!f![I:staff +1]B,,/8D,,/8B,,/8[I:staff -1]G,/8[I:staff +1] z2!ped-up! !wedge!D,,z/!wedge!G,,/ | %3
 (21:16:6(!>!G,,2-!<(!!ped! G,,/8C,/8E,/8!<)!!ff![I:staff -1]A,/8!f!(E/8!ped-up![I:staff +1] !wedge!^F,,))z/!wedge!E,,/ (21:16:6(!>!E,,2-!<(!!ped! E,,/8A,,/8C,/8!<)!!ff![I:staff -1]^F,/8!f!(C/8!ped-up![I:staff +1] !wedge!D,,))z/!wedge!C,,/ | %4
 (35:24:12B,,,3-!ped! B,,,/8G,,/8B,,/8"^"[I:staff -1]D,/8G,/8D/8G,/8D,/8[I:staff +1]B,,/8G,,/8B,,,/8!ped-up!!ped! (6:4:6(A,,,/4B,,,/4"_"=B,,,/4C,,/4^C,,/4D,,/4)!ped-up!!ped! !wedge!G,,, z!ped-up! !wedge!G,,,z/!wedge!_B,,,/ | %5
 (22:16:7!>!D,,2-!ped! D,,/8B,,/8[I:staff -1]G,/8D/8G,/8[I:staff +1]B,,/8!ped-up! !wedge!D,,z/!wedge!D,,/ (22:16:7!>!G,,2-!ped! G,,/8_D,/8[I:staff -1]B,/8=E/8B,/8[I:staff +1]D,/8!ped-up! !wedge!G,,z/!wedge!G,,/ | %6
 (30:24:7!^!F,,3-!ped! F,,/8=D,/8[I:staff -1]B,/8F/8B,/8[I:staff +1]D,/8!ped-up!!ped! (7:4:7(F,,/4G,,/4F,,/4"_"=E,,/4F,,/4G,,/4A,,/4)!ped-up!!ped! !wedge!B,, z!ped-up! !arpeggio![G,,_D,=E,]2 | %7
 !>!_D>(_A, F,>)(_D, F,>)(E, C,>)(F, | %8
!ped! !wedge!B,,) z!ped-up!!<(!!8vb(!!ped! !///-!B,,,,3!<)!!ff!!>(! B,,,3 | %9
 B,,,,!8vb)!!>)!!f! z z2!ped-up! z4 | %10
!ped! z !arpeggio!!wedge![G,,,D,,B,,] z !wedge![B,,D,]!ped-up!!ped! z !arpeggio!!wedge![G,,,E,,C,] z !wedge![C,E,]!ped-up! | %11
!ped! z !arpeggio![G,,,D,,B,,]!ped-up!!ped! (3!^!^C,/"^"!^!C,/!^!C,/!wedge!!^!D,!ped-up!!ped! (3!^!E,/"^"!^!E,/!^!E,/!wedge!!^!D,!ped-up!!ped! (3!^!B,,/"^"!^!B,,/!^!B,,/!wedge!!^!G,,!ped-up! | %12
!ped! z !arpeggio!!wedge![A,,,E,,C,] z !wedge![C,E,]!ped-up!!ped! z !arpeggio!!wedge![^F,,,A,,] z !wedge![^F,,A,,D,]!ped-up! | %13
!ped! z !arpeggio!!wedge![G,,,D,,B,,] z !wedge![B,,D,]!ped-up!!ped! z/ .!^!G,,/.!^!^F,,/.!^!=F,,/ .!^!=E,,/.!^!_E,,/.!^!D,,/.!^!^C,,/!ped-up! | %14
!ped! z !arpeggio!!wedge![G,,,D,,B,,] z !wedge![B,,D,]!ped-up!!ped! z !arpeggio!!wedge![A,,,E,,C,] z !wedge![C,E,]!ped-up! | %15
!ped! z !arpeggio!!wedge![B,,,F,,D,]!ped-up!!ped! (3!^!B,/!^!B,/!^!B,/!wedge!!^!A,!ped-up!!ped! (3!^!_A,/!^!A,/!^!A,/!wedge!!^!G,!ped-up!!ped! (3!^!_G,/!^!G,/!^!G,/!wedge!!^!_G,,!ped-up! | %16
!ped! z !arpeggio!!wedge![F,,D,B,] z [B,,D,]!ped-up!!ped! z [F,,C,E,] z [F,,C,E,]!ped-up! | %17
 [B,,D,]!ped! (3(B,,,/"_"F,,/B,,/(6:4:6D,/F,/"^"B,/[K:treble] D/F/B/) !wedge!d z!ped-up![K:bass]!ped! !arpeggio!.[B,,,D,]2!ped-up! | %18
!ped! !arpeggio!.[C,,E,]2!ped-up!!ped! !arpeggio!.[D,,F,]2!ped-up!!ped! !arpeggio!.[E,,_G,]2!ped-up!!ped! !arpeggio!.[F,,_A,]2!ped-up! | %19
!ped! !arpeggio!.[_G,,B,]2!ped-up!!ped! !arpeggio!.[F,,_A,]2!ped-up!!ped! !arpeggio!.[E,,_G,]2!ped-up!!ped! !wedge![_D,,=G,,A,,_D,]z/!wedge![D,,G,,A,,D,]/!ped-up! | %20
!ped! !//-![C,,F,,G,,]3/2 C,/!ped-up!!ped! (6:4:6[C,,=E,,G,,]/C,/[C,,E,,G,,]/C,/[C,,D,,G,,]/C,/!ped-up!!ped! !arpeggio![C,,E,,G,,C,] z!ped-up!!ped! !arpeggio!.[C,,=E,]2 | %21
!ped! !arpeggio!.[D,,F,]2!ped-up!!ped! !arpeggio!.[=E,,G,]2!ped-up!!ped! !arpeggio!.[F,,_A,]2!ped-up!!ped! !arpeggio!.[G,,_B,]2!ped-up! | %22
!ped! !arpeggio!.[_A,,C]2!ped-up!!ped! !arpeggio!.[G,,_B,]2!ped-up!!ped! !arpeggio!.[F,,_A,]2!ped-up!!ped! !wedge![E,,=G,,=A,,E,]z/!wedge![E,,=G,,A,,E,]/!ped-up! | %23
!ped! !//-![D,,G,,A,,]3/2 D,/!ped-up!!ped! (6:4:6[D,,^F,,A,,]/D,/[D,,F,,A,,]/D,/[D,,=E,,A,,]/D,/!ped-up!!ped! !arpeggio![D,,F,,A,,D,] z!ped-up!!ped! !arpeggio!.[D,,^F,]2!ped-up! | %24
!ped! !arpeggio!.[^E,,G,]2 !arpeggio!.[^F,,A,]2 !arpeggio!.[G,,B,]2 !arpeggio!.[A,,=C]2!ped-up! | %25
!ped! !arpeggio!.[B,,D]2 !arpeggio!.[A,,=C]2 !arpeggio!.[G,,B,]2 !arpeggio!.[=F,,A,]2!ped-up! | %26
!ped! !arpeggio!.[E,,G,]2!ped-up!!ped! !^![E,G,D]2!ped-up!!ped! (3z"_" [E,,G,,A,,][E,,G,,B,,]!ped-up!!ped! (3[E,,G,,=B,,]"_"[E,,G,,C,][E,,G,,^C,]!ped-up! | %27
!ped! !wedge![D,,^F,,D,]!f! x x2 x2 !>!D x!ped-up! | %28
!ped! !arpeggio!!wedge![G,,,B,,,D,,G,,]!ped-up! !arpeggio!!wedge![G,,B,,D,G,]!arpeggio!!wedge![B,,D,G,B,]!arpeggio!!wedge![D,G,B,D]!ped-up!!ped! !arpeggio!!wedge![G,,,C,,E,,G,,] !arpeggio!!wedge![G,,C,E,G,]!arpeggio!!wedge![C,E,G,C]!arpeggio!!wedge![E,G,CE] | %29
"_sempre arpeggiato"!ped! !arpeggio!!wedge![G,,,B,,,D,,G,,]!<(! !arpeggio!!wedge![G,,B,,D,G,]!arpeggio!!wedge![B,,D,G,B,]!<)!!ff!!arpeggio!!wedge![D,G,B,D]!ped-up!!ped! !arpeggio!!wedge![G,B,DG]!arpeggio!!wedge![D,G,B,D]!arpeggio!!wedge![B,,D,G,B,]!arpeggio!!wedge![G,,B,,D,G,]!ped-up! | %30
!ped! !arpeggio!!wedge![A,,,C,,E,,A,,] !arpeggio!!wedge![A,,C,E,A,]!arpeggio!!wedge![C,E,A,C]!arpeggio!!wedge![E,A,CE]!ped-up!!ped! !arpeggio!!wedge![^F,,,A,,,D,,^F,,] !arpeggio!!wedge![F,,A,,D,^F,]!arpeggio!!wedge![A,,D,F,A,]!arpeggio!!wedge![D,F,A,D]!ped-up! | %31
!ped! !arpeggio!!wedge![G,,,B,,,D,,G,,] !arpeggio!!wedge![G,,B,,D,G,]!arpeggio!!wedge![B,,D,G,B,]!arpeggio!!wedge![D,G,B,D]!ped-up!!ped! (3z"^" !^![G,,G,]!^![^F,,^F,] (3!^![=F,,=F,]"^"!^![=E,,=E,]!^![_E,,_E,]!ped-up! | %32
!ped! !arpeggio!!wedge![G,,,B,,,D,,G,,] !arpeggio!!wedge![G,,B,,D,G,]!arpeggio!!wedge![B,,D,G,B,]!arpeggio!!wedge![D,G,B,D]!ped-up!!ped! !arpeggio!!wedge![A,,,C,,E,,A,,] !arpeggio!!wedge![A,,C,E,A,]!arpeggio!!wedge![C,E,A,C]!arpeggio!!wedge![E,A,CE]!ped-up! | %33
!ped! !arpeggio!!wedge![B,,,D,,F,,B,,] !arpeggio!!wedge![B,,D,F,B,]!arpeggio!!wedge![D,F,B,D]!arpeggio!!wedge![B,,D,F,B,]!ped-up!!ped! [_G,,B,,_D,_G,][B,,B,]!ped-up!!ped! [=G,,B,,D,=E,=G,][D,_D]!ped-up! | %34
!ped! [_A,,_D,F,_A,] [F,_DF][A,DF][F,DF]!ped-up!!ped! [F,,C,F,] [F,CE][=A,CE][F,CE]!ped-up! | %35
!ped! [B,=D] [B,,,F,,B,,][B,,F,B,][K:treble][B,FB] [Bfb] z[K:bass] [G,,,G,,]z/[B,,,B,,]/!ped-up! | %36
!ped! !>![D,,D,]2 !>![D,,D,]z/[D,,D,]/!ped-up!!ped! !>![E,,E,]2!ped-up! !>![G,,G,]z/[E,,E,]/ | %37
!ped! z [G,B,D]/[G,B,D]/ !wedge![G,B,D]!ped-up!!ped![G,B,D]/[G,B,D]/ !wedge![G,B,D]!ped-up!!ped! x x2!ped-up! | %38
!ped! z [=CE] z [CE]!ped-up!!ped! z [^F,A,E] z [F,A,D]!ped-up! | %39
!ped! z [D,G,B,]!ped-up!!ped! x2!ped-up!!ped! z [_B,,D,G,] x2!ped-up! | %40
!ped! z [B,D] z [B,D]!ped-up!!ped! z [B,_DE] z [B,DE]!ped-up! | %41
!ped! [F,,F,]2!ped-up!!ped! [^F,,^F,]/[G,,G,]/[^G,,^G,]/[A,,A,]/ [B,,B,]2!ped-up!!ped! [A,,A,]/[_A,,_A,]/[G,,G,]/[_G,,_G,]/!ped-up! | %42
!ped! [F,,F,]z/[B,,B,]/ [D,D]z/[B,,B,]/!ped-up!!ped! [F,,F,]z/[E,,E,]/ [C,,C,]z/[F,,F,]/!ped-up! | %43
!ped! !wedge![B,,,B,,] [B,,F,B,]/[B,,F,B,]/ !wedge![B,,F,B,][K:treble] [B,FB]/[B,FB]/ !wedge![B,FB] z!ped-up!!ped! z[K:bass] !arpeggio!.[B,,,D,]!ped-up! | %44
!ped! !arpeggio!.[_C,,E,]!arpeggio!.[=C,,E,]!ped-up!!ped!!arpeggio!.[_D,,=E,]!arpeggio!.[=D,,F,]!ped-up!!ped!!arpeggio!.[_E,,_G,]!arpeggio!.[=E,,=G,]!ped-up!!ped!!arpeggio!.[F,,_A,]!arpeggio!.[F,,=A,]!ped-up! | %45
!ped! !arpeggio!.[_G,,B,]!arpeggio!.[F,,=A,]!ped-up!!ped!!arpeggio!.[F,,_A,]!arpeggio!.[=E,,=G,]!ped-up!!ped!!arpeggio!.[_E,,_G,]!arpeggio!.[=D,,F,]!ped-up!!ped! !wedge![_D,,=G,,A,,_D,]z/!wedge![D,,G,,A,,D,]/!ped-up! | %46
!ped! !//-![C,,F,,G,,]3/2 C,/!ped-up!!ped! (6:4:6[C,,=E,,G,,]/C,/[C,,E,,G,,]/C,/[C,,D,,G,,]/C,/!ped-up!!ped! !arpeggio![C,,E,,G,,C,] z!ped-up!!ped! z !arpeggio!.[C,,=E,]!ped-up! | %47
!ped!!<(! !arpeggio!.[_D,,F,]!arpeggio!.[=D,,F,]!ped-up!!ped!!arpeggio!.[_E,,^F,]!arpeggio!.[=E,,G,]"_cresc."!ped-up!!ped!!arpeggio!.[=F,,_A,]!arpeggio!.[^F,,=A,]!ped-up!!ped!!arpeggio!.[G,,B,]!arpeggio!.[G,,=B,]!ped-up!!<)! | %48
!ped! !arpeggio!.[_A,,C]!arpeggio!.[A,,=B,]!ped-up!!ped!!arpeggio!.[G,,_B,]!arpeggio!.[^F,,=A,]!ped-up!!ped!!arpeggio!.[=F,,_A,]!arpeggio!.[=E,,G,]!ped-up!!ped! !wedge![_E,,=G,,=A,,E,]z/!wedge![E,,=G,,A,,E,]/!ped-up! | %49
!ped! !//-![D,,G,,A,,]3/2 D,/!ped-up!!ped! (6:4:6[D,,^F,,A,,]/D,/[D,,F,,A,,]/D,/[D,,=E,,A,,]/D,/!ped-up!!ped! !arpeggio![D,,F,,A,,D,] z!ped-up!!ped! z !arpeggio!.[D,,^F,]!ped-up! | %50
!ped! !arpeggio!.[E,,G,]!arpeggio!.[=E,,G,]!arpeggio!.[F,,^G,]!arpeggio!.[^F,,A,]!arpeggio!.[=G,,B,]!arpeggio!.[^G,,=B,]!arpeggio!.[A,,=C]!arpeggio!.[A,,^C]!ped-up! | %51
!ped! !arpeggio!.[B,,D]!arpeggio!.[B,,^C]!arpeggio!.[A,,=C]!arpeggio!.[^G,,=B,]!arpeggio!.[=G,,_B,]!arpeggio!.[^F,,A,]!arpeggio!.[=F,,_A,]!arpeggio!.[=E,,G,]!ped-up! | %52
!ped! !arpeggio!.[_E,,G,] z !^![E,G,D]3 !>![E,G,C]!>![E,G,B,]!>![E,G,C]!ped-up! | %53
!ped! (35:32:30[D,^F,D] ^C/4=C/4=B,/4_B,/4A,/4^G,/4=G,/4^F,/4=F,/4=E,/4_E,/4D,/4^C,/4=C,/4=B,,/4_B,,/4A,,/4_A,,/4G,,/4^F,,/4=F,,/4=E,,/4_E,,/4 (3D,,/^C,,/=C,,/(3=B,,,/_B,,,/A,,,/!ped-up! | %54
!ped! z [B,D]/[B,D]/ [B,D]!ped-up!!ped! x z!ped-up!!ped! [^F,CD]/[F,CD]/ [F,CD]!ped-up!!ped! x |!ped-up! %55
 z!ped-up!!ped! [B,D]/[B,D]/ [B,D] [B,,D,G,]/[B,,D,G,]/ [B,,D,G,] z!ped-up!!ped! !>![=B,,,D,,G,,=B,,]2 | %56
 [C,,E,,G,,C,] z/ !wedge!G/!wedge!Fz/!wedge!E/ !wedge!Dz/!wedge!C/ A,>D | %57
 !^!B, z/ !wedge!!^!G,/!wedge!!^!F,z/!wedge!!^!E,/ !wedge!!^!D,z/!wedge!!^!C,/ !^!A,,>!^!D, | %58
 !wedge!!^!G,, z/ !wedge!!^!G,,/!wedge!!^!F,,z/!wedge!!^!E,,/ !wedge!!^!D,,z/!wedge!!^!C,,/ !^!A,,,>!^!D,, | %59
!ped! G,,,!ped-up! z z (3G,,,/!ped-up!"_"G,,,/G,,,/!ped! !wedge!G,,, z z (3G,,,/"_"G,,,/G,,,/ | %60
!ped! !wedge!G,,, z z2 z4!ped-up! ||[K:Eb][M:2/2]!ped! !>![E,,B,,E,] z z2 z4!ped-up! | %62
!ped! !>![E,,B,,E,] z z2 z4!ped-up! | %63
!p!!ped! !>![E,,B,,E,] z [G,B,EG][G,B,EG] [G,B,EG]!ped-up! z z2 | %64
!ped! !>![E,,E,] z [G,B,EG][G,B,EG] [G,B,EG] z z2!ped-up! | %65
!ped! !>![E,,E,] z [G,B,E][G,B,E] [G,B,G] z z2!ped-up! | %66
!ped! !>![B,,,B,,] z [F,A,][F,A,] [F,A,D] z z2!ped-up! | %67
!ped! !>![E,,E,] z [G,E][G,B,] [G,B,E] z z2!ped-up! | %68
!ped! !>![E,,E,] z [G,B,EG][G,B,EG] [G,B,EG] z z2!ped-up! | %69
!ped! !>![E,,E,] z [_G,_CE][G,CE] [G,C_G] z z2!ped-up! | %70
!ped! [F,,F,] z [B,DF] z [F,,F,] z [F,CE] z!ped-up! | %71
!ped! [B,D] z !wedge![B,,,B,,]!wedge![B,,,B,,] !wedge![B,,,B,,] z z2!ped-up! | %72
!ped! !>![E,,E,] z [G,B,EG][G,B,EG] [G,B,EG] z!ped-up! z2 | %73
!ped! !>![E,,E,] z [G,B,E][G,B,E] [G,B,G] z z2!ped-up! | %74
!ped! !>![B,,,B,,] z [F,B,D][F,B,D] [F,B,D] z z2!ped-up! | %75
!ped! !>![E,,E,] z [G,B,E][G,B,E] [G,B,E] z [G,B,E] z!ped-up! | %76
!ped! !>![E,,E,] z [G,B,EG][G,B,EG] [G,B,EG] z z2!ped-up! | %77
!ped! !>![E,,E,] z [_G,_CE_G][G,CEG] [G,CEG] z z2!ped-up! | %78
!ped! [F,,F,] z [F,B,DF] z [F,,F,] z [F,CF] z!ped-up! | %79
!ped! [B,DF] z !wedge![B,,,B,,]!wedge![B,,,B,,] !wedge![B,,,B,,] z!ped-up!!ped! (3G,"_"G,G,!ped-up! | %80
 G,2!ped-up!!ped! [G,C][G,C] [G,=B,]2!ped-up!!ped! [G,C][G,C] | %81
 [G,=B,]2 [F,C]2 !>![_B,D]2!ped-up!!ped! (3B,"_"B,B, | %82
 B,2!ped-up!!ped! [B,E][B,E] [B,D]2!ped-up!!ped! [B,E][B,E] | %83
 [B,D]2 [_A,E]2 !>![_DF]2!ped-up!!ped! (3DDD | %84
 !>!!wedge!_D2!ped-up!!ped! (3DDD !>!!wedge!D2!ped-up!!ped! (3DDD | !^!_D6!ped-up!!ped! z2 | %86
[K:treble] [_G,_D_G][DGB] [GB_d] z [G,DG][DGB]!ped-up!!ped! [GBd] z | %87
 [_G,_D_G][DGB] [GB_d] z [G,DG][DGB]!ped-up!!ped! [GBd] z | %88
 [_D,_D][DF_A] [FA_d] z [D,D][DFA]!ped-up!!ped! [FAd] z | %89
 [_G,_D_G][DGB] [GB_d] z [G,DG][DGB] [GBd] z | %90
!ped! [_G,_D_G][DGB] [GB_d] z [G,DG][DGB]!ped-up!!ped! [GBd] z!ped-up! | %91
 [^F,=D^F][DF=A] [FA=d] z [F,DF][DFA]!ped-up!!ped! [FAd] z | %92
 [_G,_E_G][EGB]!ped-up!!ped! [GBe] z _A,[E_G_c]!ped-up!!ped! =A,[EG=c] | %93
 !arpeggio![B,Fd] z!ped!!ped-up! z2 z4!ped-up!!ped! | %94
[K:bass] [E,,E,][G,,G,]!ped-up!!ped! [B,,B,] z !>![B,,E,G,B,][B,,E,G,B,]!ped-up!!ped! [B,,E,G,B,] z | %95
 !>![C,C][B,,B,]!ped-up!!ped! [E,E] z !>![G,,G,][B,,B,]!ped-up!!ped! [E,,E,] z | %96
 !>![C,C][B,,B,]!ped-up!!ped! !wedge![A,,A,] z !>![D,,D,][F,,F,]!ped-up!!ped! !wedge![B,,,B,,] z | %97
 !>![B,,B,][A,,A,]!ped-up!!ped! [G,,G,] z [B,,,B,,][E,,E,][G,,G,][B,,,B,,] | %98
 !>![E,,E,][G,,G,]!ped-up!!ped! [B,,B,] z !>![B,,E,G,B,][B,,E,G,B,]!ped-up!!ped! [B,,E,G,B,] z | %99
 !>![C,C][B,,B,]!ped-up!!ped! [E,E] z !>![G,,G,][B,,B,]!ped-up!!ped! [E,,E,] z | %100
 [F,,F,] z [F,B,DF] z [F,,F,] z [F,CF] z | %101
 !wedge![B,D] z [B,,,B,,]!ped-up![B,,,B,,] [B,,,B,,] z!ped! z2 | %102
 E,[EG]!ped-up!!ped!B,[EG] D,[EG]!ped-up!!ped!B,[EG] | %103
 _D,[EG]!ped-up!!ped!B,[EG] C,[EG]!ped-up!!ped!B,[EG] | %104
 _C,[DA]!ped-up!!ped!_C[DA] B,,[DF]!ped-up!!ped!B,[DF] | %105
 E,[EG]!ped-up!!ped!G,[EG] B,[EG]!ped-up!!ped!G,[EG] | %106
 E,[EG]!ped-up!!ped!B,[EG] D,[EG]!ped-up!!ped!B,[EG] | %107
 _D,[EG]!ped-up!!ped!B,[EG] C,[^D^F]!ped-up!!ped!=A,[DF] | %108
 =B,,[=E^G]!ped-up!!ped!=B,[EG] _B,,[E=G]!ped-up!!ped!_D[EG] | %109
 =A,,[CF]!ped-up!!ped!=A,[CF] _A,,[_E^F]!ped-up!!ped!C[EF] | %110
 G,,[EG]!ped-up!!ped!C[EG] ^F,,[E=A]!ped-up!!ped!C[EA] | %111
!ped! G,,B,!ped-up!!ped! =F,,=A,!ped-up!!ped! =E,,G,!ped-up!!ped! _E,,G,!ped-up! || %112
[K:Bb][M:4/4]!ped! (D,,/D,/D,,/D,/) !wedge![^F,A,]!ped-up! z!ped! (D,,/D,/D,,/D,/) !wedge![G,B,] z!ped-up! | %113
!ped! (D,,/D,/D,,/D,/) !wedge![^G,=B,]!ped-up! z!ped! (D,,/D,/D,,/D,/)!ped-up! !wedge![A,C] z | %114
!ped! (D,,/D,/D,,/D,/) !wedge![=B,D] z | x2!ped-up!!ped! (D,,/D,/D,,/D,/)!ped-up! !wedge![^C=E] z | %116
!ped! [D,D][D,^C]!ped-up![D,=C][D,=B,][D,_B,][D,A,][D,^G,][D,_G,] | %117
 D,,/D,/^F,/A,/D/A,/F,/D,/ D,,/D,/F,/A,/D/A,/F,/D,/ | %118
 D,,/D,/^G,/=B,/=E/B,/G,/D,/ D,,/D,/=A,/C/F/C/A,/D,/ | %119
 D,,/D,/(3^A,/"_"^C/^F/G/D/=B,/D,/ D,,/D,/(3=C/"_"E/_A/=A/=E/^C/D,/ | %120
!ped! !wedge!D,,[K:treble] x x2 x4!ped-up! | %121
 [^F,A,D] z!ped![K:bass]!ff! !wedge![D,,D,]z/!wedge![D,,D,]/ (!>![E,,E,]2 [G,,G,]>)!wedge![E,,E,]!ped-up! | %122
!ped! (D,,/[^F,,A,,]/D,/[^F,A,]/D/[F,A,]/D,/[F,,A,,]/)!ped-up!!ped! (C,,/[G,,A,,]/E,/[G,A,]/E/[G,A,]/E,/[G,,A,,]/)!ped-up! | %123
 !arpeggio![D,,^F,,A,,D,] z!ped!!ff! !wedge![D,,D,]z/!wedge![D,,D,]/ (!>![E,,E,]2 [G,,G,]>)!wedge![E,,E,]!ped-up! | %124
!ped! (D,,/[^F,,A,,]/D,/[^F,A,]/D/[F,A,]/D,/[F,,A,,]/)!ped-up!!ped! (C,,/[G,,A,,]/E,/[G,A,]/E/[G,A,]/E,/[G,,A,,]/)!ped-up! | %125
!ped! (D,,/[^F,,A,,]/D,/[^F,A,]/D/[F,A,]/D,/[F,,A,,]/)!ped-up!!ped! (C,,/[G,,A,,]/E,/[G,A,]/E/[G,A,]/E,/[G,,A,,]/)!ped-up! | %126
 [D,,^F,,A,,D,] z ^F,>F, G,2-!ped! (3G,"_"G,G,!ped-up! | (3^F,F,F, (3=F,F,F, (3=E,E,E, (3_E,E,E, | %128
 (3D,D,D, (3^C,C,C, (3=C,C,C, (3[C,,C,][C,,C,][C,,C,] | %129
 (3[D,,=B,,][D,,B,,][D,,B,,] (3[D,,_B,,][D,,B,,][D,,B,,] (3[D,,A,,C,][D,,A,,C,][D,,A,,C,] (3[D,,A,,C,][D,,A,,C,][D,,A,,C,] || %130
 z8 | z !arpeggio![G,,,D,,B,,] z [G,,B,,D,] z !arpeggio![G,,,E,,C,] z [G,,C,E,] | %132
 z !arpeggio![G,,,D,,B,,] x (3D,/"_"D,/D,/ x!mf! (3D,/D,/D,/ B,,G,, | %133
 z !arpeggio![A,,,E,,C,] z [A,,E,^F,] [E,F,A,] !arpeggio![^F,,,D,,A,,] [D,F,A,] [G,,C,E,] | %134
 z !arpeggio![G,,,D,,B,,] z [B,,D,]!ped! (6:4:6z"_"!p!!<(! !wedge!G,,!wedge!^F,,!ped-up!!wedge!=F,,"_"!wedge!=E,,!wedge!_E,,!<)! | %135
 z !arpeggio![G,,,D,,B,,] z [B,,D,] z !arpeggio![G,,,E,,C,] z [A,,C,E,] | %136
 z !arpeggio![B,,,F,,D,] x (3=G,/G,/G,/ x!mf! (3=A,/A,/A,/ z [_G,,_D,=E,] | %137
 z !arpeggio![F,,=D,B,] z [B,,D,] z !arpeggio![F,,C,E,] z [E,F,] | %138
 [B,,D,]!ped!!<(! (3B,,,/B,,,/B,,,/ x (3B,/B,/B,/!<)! z4!ped-up!!ped!!ped-up! | %139
!ped! (3!>!!^![G,,,G,,][D,G,B,D][D,G,B,D] [D,G,B,D] z!ped-up!!ped! (3!>!!^![G,,,G,,][E,G,CE][E,G,CE] [E,G,CE] z!ped-up! | %140
!ped! (3!>!!^![G,,,G,,][D,G,B,D][D,G,B,D] (3[D,G,B,D][D,G,B,D][D,G,B,D] !wedge![D,G,B,D] z z2!ped-up! | %141
!ped! (3!>!!^![A,,,A,,][G,CEG][G,CEG] !wedge![^F,CE^F] z!ped-up!!ped! (3!>!!^![^F,,,^F,,][E,F,A,E][E,F,A,E] !wedge![D,F,A,D] z!ped-up! | %142
!ped! (3!>!!^![G,,,G,,][D,G,_B,D][D,G,B,D](3[D,G,B,D][D,G,B,D][D,G,B,D] !wedge![D,G,B,D] z z2!ped-up! | %143
!ped! (3!>!!^![G,,,G,,][D,G,B,D][D,G,B,D] !wedge![D,G,B,D] z!ped-up!!ped! (3!>!!^![A,,,A,,][G,CEG][G,CEG] !wedge![G,CEG] z!ped-up! | %144
!ped! (3!>!!^![B,,,B,,][F,B,DF][F,B,DF] [F,B,DF] z!ped-up!!ped! (3!>!!^![_G,,_G,][G,B,_D=E][G,B,DE] !wedge![G,B,DE] z!ped-up! | %145
!ped! (3!>!!^![F,,F,][F,B,DF][F,B,DF] (3[F,B,DF][F,B,DF][F,B,DF]!ped-up!!ped! (3!>!!^![F,,F,][F,CEF][F,CEF] (3[F,CEF][F,CEF][F,CEF]!ped-up! | %146
!ped! [B,D] z (3[B,,,B,,]!ped-up![B,,,B,,][B,,,B,,]!ped! [B,,,B,,] z!ped-up!!ped! !stemless!B,,,/ x/!8vb(! !stemless![B,,,,B,,,]/ x/!ped-up! | %147
 !stemless![_C,,,_C,,]/ x/ !stemless![=C,,,=C,,]/ x/ !stemless![_D,,,_D,,]/ x/ !stemless![=D,,,=D,,]/ x/ !stemless![E,,,E,,]/ x/ !stemless![=E,,,=E,,]/ x/ !stemless![F,,,F,,]/ x/ !stemless![F,,,F,,]/ x/ | %148
 !stemless![_G,,,_G,,]/ x/ !stemless![G,,,G,,]/ x/ !stemless![F,,,F,,]/ x/ !stemless![=E,,,=E,,]/ x/ !stemless![_E,,,_E,,]/ x/ !stemless![D,,,D,,]/!8vb)! x/!ped-up!!ped! [_D,,F,,=G,,_D,]z/[D,,F,,G,,D,]/ | %149
!ped! (3!wedge![C,,F,,G,,C,]"^" [F,G,C][F,G,C] (3[=E,G,C]"_"[E,G,C][D,G,C]!ped-up!!ped! [E,G,C] z!ped-up!!ped! !stemless!C,,/ x/!8vb(! !stemless![C,,,C,,]/ x/!ped-up! | %150
 !stemless![_D,,,_D,,]/ x/ !stemless![=D,,,=D,,]/ x/ !stemless![_E,,,_E,,]/ x/ !stemless![=E,,,=E,,]/ x/ !stemless![F,,,F,,]/ x/ !stemless![^F,,,^F,,]/ x/ !stemless![G,,,G,,]/ x/ !stemless![G,,,G,,]/ x/ | %151
 !stemless![_A,,,_A,,]/ x/ !stemless![A,,,A,,]/ x/ !stemless![G,,,G,,]/ x/ !stemless![^F,,,^F,,]/ x/ !stemless![=F,,,=F,,]/ x/ !stemless![=E,,,=E,,]/!8vb)! x/!ped-up!!ped! [_E,,G,,=A,,E,]z/[E,,G,,A,,E,]/ | %152
!ped! (3!wedge![D,,G,,A,,D,] [G,A,D][G,A,D] (3[^F,A,D][F,A,D][=E,A,D]!ped-up!!ped! [F,A,D] z!8vb(!!ped-up!!ped! !stemless![D,,,D,,]/ x/ !stemless![D,,,D,,]/ x/!ped-up! | %153
 !stemless![E,,,E,,]/ x/ !stemless![=E,,,=E,,]/ x/ !stemless![F,,,F,,]/ x/ !stemless![^F,,,^F,,]/ x/ !stemless![G,,,G,,]/ x/ !stemless![^G,,,^G,,]/ x/ !stemless![A,,,A,,]/ x/ !stemless![A,,,A,,]/ x/ | %154
 !stemless![B,,,B,,]/ x/ !stemless![B,,,B,,]/ x/ !stemless![A,,,A,,]/ x/ !stemless![^G,,,^G,,]/ x/ !stemless![=G,,,=G,,]/ x/ !stemless![^F,,,^F,,]/ x/ !stemless![=F,,,=F,,]/ x/ !stemless![=E,,,=E,,]/!8vb)! x/ | %155
!ped! (3!>![_E,,D,]"_"[E,,D,][E,,D,]!ped-up!!ped! (3!>![E,,D,][E,,D,][E,,D,]!ped-up!!ped! (3!>![E,,D,][E,,D,][E,,D,]!ped-up!!ped! (3!>![E,,D,][E,,D,][E,,D,]!ped-up! | %156
!ped! (12:8:12[D,,A,,D,] [^C,^C][=C,=C][=B,,=B,][_B,,_B,][A,,A,][^G,,^G,][=G,,=G,][^F,,^F,][=F,,=F,][=E,,=E,][_E,,_E,]!ped-up! | %157
 (12:8:12[D,,D,][^C,,^C,][=C,,=C,][=B,,,=B,,][_B,,,_B,,][A,,,A,,][^G,,,^G,,][=G,,,=G,,][^F,,,^F,,][=F,,,=F,,][=E,,,=E,,][_E,,,_E,,] | %158
!8vb(!!ped! [D,,,D,,]!8vb)! z [D,,D,] z [D,D] z[K:treble] [Dd] z!ped-up! | %159
!ped! [dd'] z z2 z4!ped-up! |!ped! !fermata!z4!f! z2 [G=Bdg][dg=b]!ped-up! || %161
[K:G]!ped! !wedge![gbd'] z !wedge![gbd']!wedge![gbd'] !wedge![gbd'] z !wedge![gbe']!wedge![gbd']!ped-up! | %162
!ped! !wedge![bd'g'] z !wedge![dgb]!wedge![gbd'] !wedge![Bdg] z !wedge![gbe']!wedge![gbd']!ped-up! | %163
!ped! !wedge![dfc'] z !wedge![Acf]!wedge![cfa] !wedge![DFd] z !wedge![dfd']!wedge![fac']!ped-up! | %164
!ped! !wedge![gb] z !wedge![GBd]!wedge![Bdg] !wedge![dgb]!wedge![GBd]!wedge![Bdg]!wedge![dgb]!ped-up! | %165
!ped! !wedge![gbd'] z !wedge![gbd']!wedge![gbd'] !wedge![gbd'] z !wedge![gbe']!wedge![gbd']!ped-up! | %166
!ped! !wedge![g_bg'] z !wedge![gb]!wedge![gb_e'] !wedge![G_B_eg] !fermata!z !wedge![gbe'] z!ped-up! | %167
!ped! !arpeggio![A^fd'] z z2!ped-up!!ped! !arpeggio![A,EG^c] z z2!ped-up! | %168
[K:bass]!ped! (3([D,F,]/"_"A,/D/[K:treble] F/4A/4^c/4d/4f/4a/4^c'/4d'/4 !wedge!f') !fermata!z2 z2 |!ped-up! %169
[K:bass]!ped! .G,,.[B,D] .D,.[B,D] .G,.[B,D]!ped-up! .D,.[B,D] | %170
!ped! .G,,.[B,D] .D,.[B,D] .G,.[B,D] .D,.[B,D]!ped-up! | %171
!ped! .D,,.[A,CD] .D,.[A,CD] .F,.[A,CD] .D,.[A,CD]!ped-up! | %172
!ped! .G,,.[B,D] .D,.[B,D] .G,.[B,D] .D,.[B,D]!ped-up! | %173
!ped! .G,,.[B,D] .D,.[B,D] .=F,,.[B,D] .D,.[B,D]!ped-up! | %174
!ped! .E,,.[_B,_D] ._D,.[B,D] ._E,,.[B,D] .D,.[B,D]!ped-up! | %175
!ped! ._E,,.[_A,C].C,.[A,C] .D,,.[^F,=A,^B,].^B,,.[F,A,B,]!ped-up! | %176
!ped! .^C,,.[F,^A,^C].^C,.[F,A,C] .=C,,.[G,A,E].E,.[G,A,E]!ped-up! | %177
!ped! .[B,,,B,,].[B,EG].^G,.[B,EG] .B,,.[B,^DF].A,.[B,DF]!ped-up! | %178
!ped! .[B,,,B,,].[B,E^G].^G,.[B,EG] .B,,.[B,^DF].A,.[B,DF]!ped-up! | %179
!ped! .B,,.[B,E^G].^G,.[B,EG]!ped-up!!ped! ._B,,.=G!ped-up!!ped! .=G,,.E!ped-up! | %180
!ped! [D,,G,,B,,D,]2 [D,G,B,D][D,G,B,D] [D,G,B,D]2[K:treble] [Ee][Dd]!ped-up! | %181
!ped! [Gg]2 [B,B][Dd] [G,G]2[K:bass] [D,,G,,B,,D,][D,,G,,B,,D,]!ped-up! | %182
!ped! [D,,F,,A,,D,]2 [D,G,B,D][D,G,B,D] [D,F,A,D]2 [D,,F,,A,,D,][D,,F,,A,,D,]!ped-up! | %183
!ped! [D,,G,,B,,D,]2 [B,B][G,G][D,D][B,,B,][G,,G,][E,,E,]!ped-up! | %184
 [D,,G,,B,,D,]2 [D,G,B,D][D,G,B,D] [D,G,B,D]2[K:treble] [Ee][Dd] | %185
[K:bass] !arpeggio![D,B,G]2[K:treble] [B,B][Dd] [G,G]2[K:bass] [D,G,B,D]2 | %186
!ped! !arpeggio!!^![_D,G,_B,_E]2 z2!ped-up!!ped! !arpeggio!!^![C,^G,A,=E]2 z2!ped-up! | %187
!ped! !arpeggio!!^![B,,^G,B,E]2 z2!ped-up!!ped! !^![E,,^G,,B,,E,]2 z2!ped-up! | %188
!ped! !arpeggio!!^![_E,,A,,C,=F,]2 z2!ped-up!!ped! !arpeggio!!^![D,,A,,C,^F,]2 z2!ped-up! | %189
!ped! [G,,,D,,G,,]2 z2!fff!!ped-up!!ped! [D,D]2 z"_marcatissimo" [D,D]!ped-up! | %190
!ped! [_E,_E]4!ped-up!!ped! [G,G]2 z [E,E]!ped-up! | %191
!ped! [D,D]2 z2!ped-up!!ped! [_B,,_B,]2 z [B,,B,]!ped-up! | %192
!ped! [A,,A,]4!ped-up!!ped! [D,D]2 z2!ped-up! | [G,,G,]2 z2 [D,,D,]2 z [D,,D,] | %194
!ped! [_E,,_E,]4!ped-up!!ped! [G,,G,]2 z [E,,E,]!ped-up! | %195
!ped! [D,,D,]2 z2!ped-up!!ped! [_B,,,_B,,]2 z [B,,,B,,]!ped-up! | %196
!ped! [A,,,A,,]4!ped-up!!ped! [D,,D,]2 z [D,,,D,,]!ped-up! | %197
!ped! [G,,,G,,]2 [B,,D,G,][D,G,B,] [G,B,D]2 [G,,,B,,,D,,G,,][G,,,B,,,D,,G,,]!ped-up! | %198
!ped! [G,,,B,,,D,,G,,]2 [D,G,B,][G,B,D] [B,DG]2 [G,,,B,,,D,,G,,][G,,,B,,,D,,G,,]!ped-up! | %199
!ped! [G,,,B,,,D,,G,,]2[K:treble] [G,B,D][B,DG] [DGB]2[K:bass] [G,,,B,,,D,,G,,][G,,,B,,,D,,G,,]!ped-up! | %200
!ped! [G,,,B,,,D,,G,,]2[K:treble] [B,DG][DGB] [GBd]2[K:bass] [G,,,B,,,D,,G,,][G,,,B,,,D,,G,,]!ped-up! | %201
!ped! [G,,,B,,,D,,G,,]2 [G,,,B,,,D,,G,,][G,,,B,,,D,,G,,] [G,,,B,,,D,,G,,]2 [G,,,B,,,D,,G,,][G,,,B,,,D,,G,,]!ped-up! | %202
!ped! [G,,,B,,,D,,G,,]2 [G,,,B,,,D,,G,,][G,,,B,,,D,,G,,] [G,,,B,,,D,,G,,]2 [G,,,B,,,D,,G,,][G,,,B,,,D,,G,,]!ped-up! | %203
"^"!ped! !/-!G,,,2 G,,2"^"!ped-up!!ped! !/-!!>!_A,,,2 _A,,2!ped-up! | %204
"^"!ped! !/-!G,,,2 G,,2"^"!ped-up!!ped! !/-!!>!_A,,,2 _A,,2!ped-up! | %205
!ped! (6:2:6G,,,G,,_A,,,_A,,=A,,,=A,,(6:2:6_B,,,_B,,=B,,,=B,,C,,C,(6:2:6^C,,^C,=C,,=C,B,,,B,,(6:2:6_B,,,_B,,A,,,A,,_A,,,_A,,!ped-up! | %206
!ped! !^![G,,,D,,G,,]2 z2 z4!ped-up! |!ped! !^![D,,F,,A,,D,]2 z2 z4!ped-up! | %208
!ped! !^![G,,B,,D,G,]2 z2!ped-up!!ped! !^![D,F,A,D]2 z2!ped-up! | %209
!ped! !^![G,,B,,D,G,]2 z2!ped-up!!ped! !^![D,,F,,A,,D,]2 z2!ped-up! | %210
!ped! !^![G,,,B,,,D,,G,,]2 z2 z4!ped-up! |!ped!{/[D,G,B,D]} !^![D,G,B,D]2 z2 z4!ped-up! | %212
!ped!{/!fermata![G,,,G,,]} !^!!fermata![G,,,G,,]8!ped-up! |] %213
V:3
 x2 | x8 | x4 D z x2 | x8 |[K:bass] x385/48 |[K:treble] x8 | x8 | x8 | x8 | %9
 x6[K:bass] [B,,D,]/[B,,D,]/ z/ [D,G,]/ | %10
 [G,B,]/[G,B,]/ z/ [G,B,]/ [G,B,]/[G,B,]/ z/ [G,B,]/ [G,C]/[G,C]/ z/ [G,C]/ [G,C]/[G,C]/ z/ [G,C]/ | %11
 !^!D4 x2 !^!D>!^!G | %12
 [CE]/[CE]/ z/ [CE]/ [CE]/[CE]/ z/ x/ [^F,A,]/[F,A,]/ z/ [F,A,]/ [F,A,]/[F,A,]/ z/ [F,A,]/ | %13
 [D,G,]/[D,G,]/ z/ [D,G,]/ [D,G,]/[D,G,]/ z/ [G,_B,]/ [B,,D,]/!f!!<(![B,,D,]/ z/ [B,,D,]/ [B,,D,]/[B,,D,]/ z/ [D,G,]/!<)! | %14
 [G,B,]/!f!!<(![G,B,]/ z/ [G,B,]/ [G,B,]/[G,B,]/ z/ [G,B,]/[K:treble]!<)! [CE]/[CE]/ z/ [CE]/ [CE]/[CE]/ z/ [CE]/ | %15
 [B,D]/[B,D]/ z/ [B,D]/ D/D/ z/ D/ [^C=E]/[CE]/ z/ [CE]/ [_DE]/[DE]/ z/ [DE]/ | %16
 [=DF]/[DF]/ z/ [DF]/ x6 | x8 | x2!8va(! x3!8va)! x3 | x2!8va(! x3!8va)! x3 | x8 | %21
 x2!8va(! x3!8va)! x3 | x2!8va(! x3!8va)! x3 | x8 | x4/3!8va(! x8/3!8va)! x4 |!8va(! x8 | %26
 x2!8va)! x6 | x8 | z z/4 D/4D/4D/4 x3 z/4 G/4G/4G/4 x2 | z z/4 D/4D/4D/4 D x5 | %30
 z z/4 G/4G/4G/4 x2 z z/4 E/4E/4E/4 x2 | x8 | z z/4 D/4D/4D/4 x3 z/4 G/4G/4G/4 x2 | x8 | x8 | %35
 x4!8va(! x!8va)! x3 | z !wedge![GB] z !wedge![GB] z !wedge![Gc] z !wedge![Gc] | %37
 z [GB]/[GB]/ !wedge![GB][GB]/[GB]/ !wedge![GB] x3 | z [A=c] z [Ac] z [^FA] z [FA] | %39
 z [DG] x2 z [_B,D] x2 | z [GB] z [GB] z [B_d=e] z [Bde] | %41
 z [B=d]!8va(! x2 z!8va)! [_d=e]!8va(! x2 | z!8va)! [df] z [Bd] z [Ac] z [FA] | x8 | %44
 x2!8va(! x3!8va)! x3 | x2!8va(! x3!8va)! x3 | x8 | x2!8va(! x3!8va)! x3 | x2!8va(! x3!8va)! x3 | %49
 x8 | x4/3!8va(! x8/3!8va)! x4 |!8va(! x8 | x3!8va)! x5 | x8 | %54
 z [Bd]/[Bd]/ [Bd] x z [^Fcd]/[Fcd]/ [Fcd] x | z [Gd]/[Gd]/ [Gd][Gdg]/[Gdg]/ [Gdg] z x2 | x8 | %57
 x2 ([=B,D]>[CE]) !wedge![CE] z C2 | x2[I:staff +1] G,2- x2[I:staff -1] C2 | %59
[I:staff +1] !stemless![G,B,] x7 | x8 || %61
[K:Eb][M:2/2] x2 !stemless![G,B,] !stemless![G,B,] !stemless![G,B,] x3 | %62
 x2 !stemless![G,B,] !stemless![G,B,] !stemless![G,B,] x3 | x8 | x8 | x8 | x8 | x8 | x8 | x8 | x8 | %71
 x2!8va(! x3!8va)! x3 | x8 | x8 | x8 | x4[I:staff -1] !wedge![GB] x !wedge![GB] x | x8 | %77
 x6!8va(! x2 | x6!8va)! x2 | x2!8va(! x3!8va)! x3 | x8 | x8 | x8 | x8 | x8 | x6!8va(! x2 | x8 | %87
 x8 | x8 | x8 | x8 | x8 | x8 | x!8va)! x7 | x8 | x8 | x8 | x8 | x8 | x6!8va(! x2 | x4!8va)! x4 | %101
 x8 |!8va(! x8 | x8 | x8 | x2!8va)! x6 |!8va(! x8 | x8 | x8 | x8 | x8 | x6!8va)! x2 || %112
[K:Bb][M:4/4][K:bass] (3[^F,A,]"_"[F,A,][F,A,] x2 (3[G,B,]"_"[G,B,][G,B,] x2 | %113
 (3[^G,=B,][G,B,][G,B,] x2 (3[A,C][A,C][A,C] x2 |[K:treble] (3[^A,^C][A,C][A,C] x2 | %115
 (3[=C_E][CE][CE] x2 | x8 | (3[^FA][FA][FA] x2 (3[GB][GB][GB] x2 | %118
 (3[^G=B][GB][GB] x2 (3[=Ac][Ac][Ac] x2 | (3[^A^c][Ac][Ac] x2 (3[=c_e][ce][ce] x2 | x8 | x8 | %122
 x2!8va(! x6 | x!8va)! x7 | x2!8va(! x6 | x8 | %126
 x!8va)! x[I:staff +1] !stemless!A,3/2 !stemless!A,/ !^!!stemless!B,2- (3!stemless!B, !wedge!!stemless!B, !wedge!!stemless!B, | %127
 (3!wedge!!stemless!A, !wedge!!stemless!A, !wedge!!stemless!A, (3!wedge!!stemless!_A, !wedge!!stemless!A, !wedge!!stemless!A, (3!wedge!!stemless!G, !wedge!!stemless!G, !wedge!!stemless!G, (3!wedge!!stemless!_G, !wedge!!stemless!G, !wedge!!stemless!G, | %128
 x8 | x8 || x8 |[I:staff -1] [G,B,] z [G,B,] z [G,C] z [G,C] z | [G,B,] x x4 [G,B,] x | %133
 [G,C] x [^F,C] x5 |[K:bass] [D,G,]2 (3[D,G,] x [G,_B,] x4 | %135
[K:treble] [G,B,] x [G,B,] x [G,C] x [G,C] x | [F,B,] x x4 [B,_D=E] x | %137
 [=DF] x [F,B,] x [F,A,] x [F,A,] x | x8 | %139
!8va(! (3[dgb]"_"[dgb][dgb] [dgb]2 (3[gc'][egc'][egc'] x2 | %140
 (3[dgb][dgb][dgb] (3[dgb][dgb][dgb] !wedge![dgb] x3 | %141
 (3[gc'e'][gc'e'][gc'e'] x2 (3[e^fa][efa][efa] [dfa]!8va)! x | x8 | %143
!8va(! (3[dgb][dgb][dgb] [dgb] x (3[gc'e'][gc'e'][gc'e'] [gc'e'] x | x8 | x6!8va)! x2 | %146
 x2!8va(! x3!8va)! x[K:bass] x/[K:bass] x3/2 | x8 | x6[K:treble] x2 | x6[K:bass] x/[K:bass] x3/2 | %150
 x8 | x6[K:treble] x2 | x13/2[K:bass] x3/2 | x8 | x8 |[K:treble] x8 | x8 |!8va(! x8 | x8 | x8 | %160
 !////-!x2 x2!p! !///-!x2 x2 ||[K:G] x8 | x8 | x8 | x8 | x8 | x8 | x161/40!8va)! x4 | %168
 x2!8va(! x2!8va)! x4 | x8 | x8 | x8 | x8 | x8 | x8 | x6!8va(! x2 | x8 | x8 | x8 | x8 | x8 | x8 | %182
 x8 | x8 | x8 | x8 | x6!8va)! x2 | x8 | x8 | x8 | (6:4:6x x"_" x x x x (6:4:6x x x x x x | %191
!8va(! (12:8:12x x"^" x x x x x x x x x x | (6:4:6x"^" x x x x x (6:4:6x x x x x x | %193
 (12:8:12x x x x x x x x x x x x | (6:4:6x x x x x x (6:4:6x x x x x x | %195
 (12:8:12x x x x x x x x x x x x | (6:4:6x x x x x x (6:4:6x x x x x x!8va)! | x6!8va(! x2 | %198
 x2!8va)! x4!8va(! x2 | x2!8va)! x4!8va(! x2 | x2!8va)! x4!8va(! x2 | x8 | x8 | %203
 (6:4:6x x x x x x (6:4:6x x x x x x | (6:4:6x x x x x x (6:4:6x x x x x x | x8 | x8 | x8 | %208
 x2!8va)! x6 | x8 |[I:staff +1] !^!!stemless!G,2 x6 | x8 |{/!stemless!G,} !^!G,8 |] %213
V:4
 x2 | x8 | x8 | x8 | x385/48 | x8 | x6 !>!B,>C | [_A,,F,]2 x2 [F,,=A,,]2 x2 | %8
 x2!8vb(! (2:24:2x/4x/4 | x!8vb)! x7 | x8 | x8 | x8 | x8 | x8 | x8 | %16
 x2 [F,B,]/[F,B,]/ z/ [F,B,]/ [F,A,]/[F,A,]/ z/ [F,A,]/ [F,A,]/[F,A,]/ z/ [F,A,]/ | %17
 x3[K:treble] x3[K:bass] x2 | x8 | x8 | x8 | x8 | x8 | x8 | x8 | x8 | x8 | x8 | x8 | x8 | x8 | x8 | %32
 x8 | x8 | x8 | x3[K:treble] x3[K:bass] x2 | %36
 z !wedge![G,B,D] z !wedge![G,B,D] z !wedge![G,CE] z !wedge![G,CE] | %37
 [D,,D,]2 x3 ([^C,,^C,][D,,D,])z/[G,,G,]/ | %38
 (!>![G,,G,]2 [^F,,^F,])z/[E,,E,]/ ([E,,E,]2 [D,,D,])z/[C,,C,]/ | %39
 [B,,,B,,]2 [=B,,,=B,,]/[C,,C,]/[^C,,C,]/[D,,D,]/ [G,,,G,,] x [G,,,G,,]>[_B,,,_B,,] | %40
 [D,,D,]2 [D,,D,]z/[D,,D,]/ [G,,G,]2 [G,,G,]z/[G,,G,]/ | z [B,=DF] x2 z [_D=E=G] x2 | %42
 z [DFB] z [DF] z [CEF] z [CE] | x3[K:treble] x4[K:bass] x | x8 | x8 | x8 | x8 | x8 | x8 | x8 | %51
 x8 | x8 | x8 | %54
 !>![G,,,D,,G,,]2 x [G,,,D,,G,,]/[G,,,D,,G,,]/ [A,,,D,,A,,]2 x [A,,,D,,A,,]/[A,,,D,,A,,]/ | %55
 [B,,,D,,B,,]2 x6 | x6 [D,^F,]2 | !^!G, x7 | x8 | x8 | x8 ||[K:Eb][M:2/2] x8 | x8 | x8 | x8 | x8 | %66
 x8 | x8 | x8 | x8 | x8 | x8 | x8 | x8 | x8 | x8 | x8 | x8 | x8 | x8 | x8 | x8 | x8 | x8 | x8 | %85
 x8 |[K:treble] x8 | x8 | x8 | x8 | x8 | x8 | x8 | x8 |[K:bass] x8 | x8 | x8 | x8 | x8 | x8 | x8 | %101
 x8 | x8 | x8 | x8 | x8 | x8 | x8 | x8 | x8 | x8 | x8 ||[K:Bb][M:4/4] x8 | x8 | x4 | x4 | x8 | %117
 x2 !>!D2 x2 !>!D2 | x2 !>!=E2 x2 !>!F2 | x2 !>!G2 x2 !>!A2 | x[K:treble] x7 | x2[K:bass] x6 | x8 | %123
 x8 | x8 | x8 | x8 | x8 | x8 | x8 || x8 | x8 | x8 | x8 | x8 | x8 | x8 | x8 | x8 | x8 | x8 | x8 | %142
 x8 | x8 | x8 | x8 | x7!8vb(! x | x8 | x11/2!8vb)! x5/2 | x7!8vb(! x | x8 | x11/2!8vb)! x5/2 | %152
 x6!8vb(! x2 | x8 | x15/2!8vb)! x/ | x8 | x8 | x8 |!8vb(! x!8vb)! x5[K:treble] x2 | x8 | x8 || %161
[K:G] x8 | x8 | x8 | x8 | x8 | x8 | x241/30 |[K:bass] x[K:treble] x7 |[K:bass] x8 | x8 | x8 | x8 | %173
 x8 | x8 | x8 | x8 | x8 | x8 | x8 | x6[K:treble] x2 | x6[K:bass] x2 | x8 | x8 | x6[K:treble] x2 | %185
[K:bass] x2[K:treble] x4[K:bass] x2 | x8 | x8 | x8 | x8 | x8 | x8 | x8 | x8 | x8 | x8 | x8 | x8 | %198
 x8 | x2[K:treble] x4[K:bass] x2 | x2[K:treble] x4[K:bass] x2 | x8 | x8 | %203
 (6:4:6x x x x x x (6:4:6x x x x x x | (6:4:6x x x x x x (6:4:6x x x x x x | x8 | x8 | x8 | x8 | %209
 x8 | x8 | x8 | x8 |] %213
V:5
 x2 | x8 | x8 | x8 | x385/48 | x8 | x8 | x8 | x2!8vb(! x6 | x!8vb)! x7 | x8 | x8 | x8 | x8 | x8 | %15
 !^!F,2 x6 | x8 | x3[K:treble] x3[K:bass] x2 | x8 | x8 | x8 | x8 | x8 | x8 | x8 | x8 | x8 | x8 | %28
 x8 | x8 | x8 | x8 | x8 | x8 | x8 | x3[K:treble] x3[K:bass] x2 | x8 | x8 | x8 | x8 | x8 | x8 | x8 | %43
 x3[K:treble] x4[K:bass] x | x8 | x8 | x8 | x8 | x8 | x8 | x8 | x8 | x8 | x8 | x8 | x8 | x8 | x8 | %58
 x8 | x8 | x8 ||[K:Eb][M:2/2] x8 | x8 | x8 | x8 | x8 | x8 | x8 | x8 | x8 | x8 | x8 | x8 | x8 | x8 | %75
 x8 | x8 | x8 | x8 | x8 | x8 | x8 | x8 | x8 | x8 | x8 |[K:treble] x8 | x8 | x8 | x8 | x8 | x8 | %92
 x8 | x8 |[K:bass] x8 | x8 | x8 | x8 | x8 | x8 | x8 | x8 | x8 | x8 | x8 | x8 | x8 | x8 | x8 | x8 | %110
 x8 | x8 ||[K:Bb][M:4/4] x8 | x8 | x4 | x4 | x8 | x8 | x8 | x8 | x[K:treble] x7 | x2[K:bass] x6 | %122
 x8 | x8 | x8 | x8 | x8 | x8 | x8 | x8 || x8 | x8 | x8 | x8 | x8 | x8 | x8 | x8 | x8 | x8 | x8 | %141
 x8 | x8 | x8 | x8 | x8 | x7!8vb(! x | x8 | x11/2!8vb)! x5/2 | x7!8vb(! x | x8 | x11/2!8vb)! x5/2 | %152
 x6!8vb(! x2 | x8 | x15/2!8vb)! x/ | x8 | x8 | x8 |!8vb(! x!8vb)! x5[K:treble] x2 | x8 | x8 || %161
[K:G] x8 | x8 | x8 | x8 | x8 | x8 | x241/30 |[K:bass] x[K:treble] x7 |[K:bass] x8 | x8 | x8 | x8 | %173
 x8 | x8 | x8 | x8 | x8 | x8 | x8 | x6[K:treble] x2 | x6[K:bass] x2 | x8 | x8 | x6[K:treble] x2 | %185
[K:bass] x2[K:treble] x4[K:bass] x2 | x8 | x8 | x8 | x8 | x8 | x8 | x8 | x8 | x8 | x8 | x8 | x8 | %198
 x8 | x2[K:treble] x4[K:bass] x2 | x2[K:treble] x4[K:bass] x2 | x8 | x8 | x8 | x8 | x8 | x8 | x8 | %208
 x8 | x8 | x8 | x8 | x8 |] %213
V:6
 x2 | x8 | x8 | x8 | x385/48 | x8 | x8 | x8 | x2!8vb(! x6 | x!8vb)! x7 | x8 | x8 | x8 | x8 | x8 | %15
 x8 | x8 | x3[K:treble] x3[K:bass] x2 | x8 | x8 | x8 | x8 | x8 | x8 | x8 | x8 | x8 | x8 | x8 | x8 | %30
 x8 | x8 | x8 | x8 | x8 | x3[K:treble] x3[K:bass] x2 | x8 | x8 | x8 | x8 | x8 | x8 | x8 | %43
 x3[K:treble] x4[K:bass] x | x8 | x8 | x8 | x8 | x8 | x8 | x8 | x8 | x8 | x8 | x8 | x8 | x8 | x8 | %58
 x6 !stemless!G,3/2 !stemless!^F,/ | x8 | x8 ||[K:Eb][M:2/2] x8 | x8 | x8 | x8 | x8 | x8 | x8 | %68
 x8 | x8 | x8 | x8 | x8 | x8 | x8 | x8 | x8 | x8 | x8 | x8 | x8 | x8 | x8 | x8 | x8 | x8 | %86
[K:treble] x8 | x8 | x8 | x8 | x8 | x8 | x8 | x8 |[K:bass] x8 | x8 | x8 | x8 | x8 | x8 | x8 | x8 | %102
 x8 | x8 | x8 | x8 | x8 | x8 | x8 | x8 | x8 | x8 ||[K:Bb][M:4/4] x8 | x8 | x4 | x4 | x8 | x8 | x8 | %119
 x8 | x[K:treble] x7 | x2[K:bass] x6 | x8 | x8 | x8 | x8 | x8 | x8 | x8 | x8 || x8 | x8 | x8 | x8 | %134
 x8 | x8 | x8 | x8 | x8 | x8 | x8 | x8 | x8 | x8 | x8 | x8 | x7!8vb(! x | x8 | x11/2!8vb)! x5/2 | %149
 x7!8vb(! x | x8 | x11/2!8vb)! x5/2 | x6!8vb(! x2 | x8 | x15/2!8vb)! x/ | x8 | x8 | x8 | %158
!8vb(! x!8vb)! x5[K:treble] x2 | x8 | x8 ||[K:G] x8 | x8 | x8 | x8 | x8 | x8 | x241/30 | %168
[K:bass] x[K:treble] x7 |[K:bass] x8 | x8 | x8 | x8 | x8 | x8 | x8 | x8 | x8 | x8 | x8 | %180
 x6[K:treble] x2 | x6[K:bass] x2 | x8 | x8 | x6[K:treble] x2 |[K:bass] x2[K:treble] x4[K:bass] x2 | %186
 x8 | x8 | x8 | x8 | x8 | x8 | x8 | x8 | x8 | x8 | x8 | x8 | x8 | x2[K:treble] x4[K:bass] x2 | %200
 x2[K:treble] x4[K:bass] x2 | x8 | x8 | x8 | x8 | x8 | x8 | x8 | x8 | x8 | x8 | x8 | %212
 x4[I:staff -1] x4 |] %213

